src/assets/font-icons/stickers.svg

<svg xmlns="http://www.w3.org/2000/svg" width="32" height="32"><path d="M10.667 30.667a9.333 9.333 0 0 1-9.333-9.333V10.667a9.333 9.333 0 0 1 9.333-9.333h10.667a9.333 9.333 0 0 1 9.333 9.333v6.853a5.337 5.337 0 0 1-.866 2.914c-1.232 1.888-2.629 3.614-4.191 5.176s-3.288 2.959-5.176 4.191a5.337 5.337 0 0 1-2.914.866h-6.853zM21.333 4H10.666a6.667 6.667 0 0 0-6.667 6.667v10.667a6.667 6.667 0 0 0 6.667 6.667h5.333c.684 0 1.247-.515 1.324-1.178l.009-.155v-5.733a3.6 3.6 0 0 1 3.372-3.593l.228-.007h5.733c.684 0 1.247-.515 1.324-1.178l.009-.155v-5.333a6.667 6.667 0 0 0-6.667-6.667zm5.539 15.996-.205.004h-5.733a.933.933 0 0 0-.925.807l-.009.127v5.733l-.004.206a29.092 29.092 0 0 0 6.876-6.876z"/></svg>

<?xml version="1.0" encoding="UTF-8" standalone="no"?>
<!DOCTYPE svg PUBLIC "-//W3C//DTD SVG 1.1//EN" "http://www.w3.org/Graphics/SVG/1.1/DTD/svg11.dtd">
<svg width="100%" height="100%" viewBox="0 0 32 32" version="1.1" xmlns="http://www.w3.org/2000/svg" xmlns:xlink="http://www.w3.org/1999/xlink" xml:space="preserve" xmlns:serif="http://www.serif.com/" style="fill-rule:evenodd;clip-rule:evenodd;stroke-linejoin:round;stroke-miterlimit:2;">
    <path d="M10.667,30.667C5.547,30.667 1.334,26.454 1.334,21.334L1.334,10.667C1.334,5.547 5.547,1.334 10.667,1.334L21.334,1.334C26.454,1.334 30.667,5.547 30.667,10.667L30.667,17.52C30.667,18.555 30.366,19.567 29.801,20.434C28.569,22.322 27.172,24.048 25.61,25.61C24.048,27.172 22.322,28.569 20.434,29.801C19.567,30.366 18.555,30.667 17.52,30.667L10.667,30.667ZM17.332,21.919L17.332,20.935C17.332,19.046 18.819,17.462 20.704,17.342L20.932,17.335L26.665,17.335C27.349,17.335 27.912,16.82 27.989,16.157L27.998,16.002L27.998,10.669C27.998,7.012 24.988,4.002 21.331,4.002L21.333,4L10.666,4C7.009,4 3.999,7.01 3.999,10.667L3.999,21.334C3.999,24.991 7.009,28.001 10.666,28.001L15.999,28.001C16.683,28.001 17.246,27.486 17.323,26.823L17.332,26.668L17.332,24.496C16.895,24.565 16.45,24.6 15.999,24.6C12.769,24.601 9.801,22.782 8.335,19.904C8.251,19.731 8.207,19.542 8.207,19.35C8.207,18.655 8.779,18.083 9.474,18.083C9.941,18.083 10.371,18.341 10.592,18.753C11.625,20.784 13.72,22.068 15.999,22.067C16.453,22.067 16.9,22.016 17.332,21.919ZM20.333,14.667C19.412,14.667 18.666,13.772 18.666,12.667C18.666,11.562 19.412,10.667 20.333,10.667C21.254,10.667 22,11.562 22,12.667C22,13.772 21.254,14.667 20.333,14.667ZM13.333,12.667C13.333,13.772 12.587,14.667 11.666,14.667C10.745,14.667 9.999,13.772 9.999,12.667C9.999,11.562 10.745,10.667 11.666,10.667C12.587,10.667 13.333,11.562 13.333,12.667ZM26.872,19.997L26.667,20L20.934,20C20.469,20 20.072,20.347 20.009,20.807L20,20.934L20,26.667L19.996,26.873C22.658,24.983 24.982,22.658 26.872,19.997Z"/>
</svg>
